X:1
T:The Well-Tempered Clavier Part I Fuga XV
T:BWV 860
T:J. S. Bach
%%score { ( 1 3 5 ) | ( 2 4 ) }
L:1/8
M:6/8
K:G
V:1 treble nm="Harp"
V:3 treble 
V:5 treble 
V:2 bass 
V:4 bass 
V:1
 GA/G/F/G/ AB/A/G/A/ | BAG D c2 | BAG F e2 | de/d/c/B/ Ac/B/A/G/ | FGA GAB | %5
 AB/^c/d/B/ c/B/c/d/e/c/ | d/^c/d/e/f/d/ e/d/e/f/g/e/ | fg/f/e/d/ g3- | %8
 g/f/e/g/d/g/ ^c/g/B/g/A/g/ | fde fga- | ad g2 fe | dcB A2 z | z z d- d ca- | a g2- ga/g/f/e/ | %14
 d6- | ddc BAG | c/d/ e2- e/d/c/B/A/c/ | B/c/ d2- d/c/B/A/G/B/ | A/B/ c2- c/B/A/G/F/A/ | %19
 G/A/ B2- BEA- | A/G/AB c/d/c/B/A/G/ | G/4F/4G/4F/4G/4F/4E/4F/4G- G/B/A/G/F/E/ | D z z4 | %23
 AG/A/B/A/ GF/G/A/G/ | FGA d F/4E/4F/4E/4F/4E/4F/4E/4 | FGA B D/4^C/4D/4C/4D/4C/4D/4C/4 | %26
 DD/E/F/G/ AF/G/A/B/ | c2 B A3 | G/g/f/e/d/f/ e/f/e/d/c/e/ | d/e/d/c/B/d/ c/d/c/B/A/c/ | %30
 B/A/G/B/F/B/ E/B/D/B/^C/B/ | A/G/F/A/E/A/ D/A/^C/A/B,/A/ | G/F/E/G/D/G/ ^C/G/B,/G/A,/G/ | %33
 F/d/c/B/A/G/ F/E/D/C/B,/A,/ | G,/A,/B,/G,/C/G,/ D/G,/E/G,/=F/G,/ | E/c/B/d/A/d/ ^G/d/F/d/E/d/ | %36
 c/A/B/^c/^d/e/ f/g/a/b/c'/d/ | ef/e/^d/e/ fg/f/e/f/ | gfe B a2 | gfe ^d c'2 | %40
 bc'/b/a/g/ fa/g/f/e/ | ^dag fed | edc dcB | c/c'/b/a/g/b/ a/b/a/g/f/a/ | %44
 g/a/g/f/e/g/ f/g/f/e/^d/f/ | ef/g/a- ag/a/b- | bag f/g/a^d | e2 B A3- | A2 A G3- | G2 G F3- | %50
 F/B/^c/B/^A/B/ cd/c/B/c/ | d^cB ^A g2 | fg/f/e/d/ ^ce/d/c/B/ | ^A/B/^c/A/d/_B/ e/A/f/A/g/A/ | %54
 f/^A/B/f/e/4d/4^c/4d/4 e/^G/A/e/d/4c/4B/4c/4 | d6- | d6- | d/F/4^G/4A/E/B/E/ ^c/E/d/F/e/=G/ | %58
 F/G/4A/4B/F/^c/F/ d/F/e/G/f/A/ | G/F/G/B/e/G/ F/B/A/^c/d- | d ^c2 de/d/c/d/ | %61
 ef/e/d/e/ fg/f/e/d/ | ^c b2- b/a/b/a/g/f/ | %63
 f/4e/4f/4e/4f/4e/4f/4e/4f/4e/4f/4e/4 f/4e/4f/4e/4f/4e/4f/4e/4f/4e/4f/4e/4 | %64
 f/4e/4a/4g/4f/a/e/a/ d/a/^c/a/B/a/ | g/f/e/g/d/g/ ^c/g/B/g/A/g/ | f/e/d/f/c/f/ B/f/A/f/G/f/ | %67
 e/d/^c/e/B/e/ A/e/G/e/F/e/ | d/F/E/G/d/^c/ e/4d/4e/4d/4e/4d/4e/4d/4e/4d/4e/4d/4 | %69
 e/4d/4e/4d/4e/4d/4e/4d/4e/4d/4e/4d/4 e/4d/4e/4d/4e/4d/4e/4d/4e/4d/4e/4d/4 | e/4d/4d/ c2- c B2- | %71
 B A2- A/G/A/G/F/G/ | F/D/4E/4F/D/G/D/ A/D/B/D/c/D/ | B/g/=f/e/d/c/ B/A/G/=F/E/D/ | %74
 C/ e/d/c/B/A/ ^G/F/E/D/C/B,/ | A,/B,/^C/A,/D/A,/ E/A,/F/A,/G/A,/ | FBG EAF | %77
 G3- G/A/B/4A/4B/4A/4B/4A/4G/4A/4 | Bc/B/A/B/ cd/c/B/c/ | dcB A g2 | fed ^c _b2 | %81
 a/g/f/e/d z/ gc/g/f/ | g/f/4e/4d/g/c/g/ BgA | B/d/4c/4B/d/A/d/ G c2- | %84
 c/4G/4A/4B/4c/G/d/G/ e/4B/4c/4d/4e/c/f/c/ | g2- g/f/ !fermata!g3 |] %86
V:2
 z6 | z6 | z6 | z6 | z6 | z6 | z6 | z6 | z6 | z6 | G,A,/G,/F,/G,/ A,B,/A,/G,/A,/ | B,A,G, D, C2 | %12
 B,A,G, F, E2 | DE/D/C/B,/ A,C/B,/A,/G,/ | F,2 E, D,/E,/D,/C,/B,,/A,,/ | %15
 G,,/A,,/B,,/G,,/C,/G,,/ D,/G,,/E,/G,,/=F,/G,,/ | E,/D,/C,/E,/B,,/E,/ A,,/E,/G,,/E,/F,,/E,/ | %17
 D,/C,/B,,/D,/A,,/D,/ G,,/D,/F,,/D,/E,,/D,/ | C,/B,,/A,,/C,/G,,/C,/ F,,/C,/E,,/C,/D,,/C,/ | %19
 B,,A,,G,, A,,G,,F,, | G,,/G,/=F,/E,/D,/F,/ D,/F,/E,/D,/C,/E,/ | %21
 D,/E,/D,/C,/B,,/D,/ C,/D,/C,/B,,/A,,/C,/ | B,,/C,/B,,/A,,/G,,/A,,/ B,,/^C,/D,/E,/F,/G,/ | %23
 F,B,B,, E,A,A,, | D,E, F,2 G,^C, | D, z z4 | z6 | D,C,/D,/E,/D,/ C,B,,/C,/D,/C,/ | %28
 B,,C,D, G, A,,2 | B,,C,D, E, F,,2 | G,,/A,,/ B,,2- B,,/A,,/G,,/F,,/E,,/G,,/ | %31
 F,,/G,,/ A,,2- A,,/G,,/F,,/E,,/D,,/F,,/ | E,,/F,,/ G,,2- G,,/F,,/E,,/D,,/^C,,/E,,/ | %33
 D,,/E,,/F,,/D,,/G,,/D,,/ A,,/D,,/B,,/D,,/C,/D,,/ | %34
 B,,/G,/=F,/E,/D,/C,/ B,,/A,,/G,,/=F,,/E,,/D,,/ | C,,/D,,/E,,/F,,/^G,,/A,,/ B,,/C,/D,/E,/F,/^G,/ | %36
 A,/G,/F,/A,/E,/A,/ ^D,/A,/^C,/A,/B,,/A,/ | G,CB, A,B,B,, | E,/F,/G,/E,/A,/E,/ B,/E,/^C/E,/^D/E,/ | %39
 E z z4 | z6 | z6 | z6 | z6 | z6 | z6 | z/ B,,/4^C,/4^D,/B,,/E,/B,,/ F,/B,,/G,/B,,/A,/B,,/ | %47
 G,/F,/E,/G,/D,/G,/ ^C,/G,/B,,/G,/A,,/G,/ | F,/E,/D,/F,/^C,/F,/ B,,/F,/A,,/F,/^G,,/F,/ | %49
 E,/D,/^C,/E,/B,,/E,/ ^A,,/E,/^G,,/E,/F,,/E,/ | D,/F,/E,/D,/^C,/B,,/ ^A,,/C,/B,,/A,,/^G,,/F,,/ | %51
 B,,^C,/B,,/^A,,/B,,/ C,D,/C,/B,,/C,/ | D,^C,B,, ^A,, G,2 | F,/^G,/^A,/F,/B,/F,/ ^C/F,/E/F,/E/F,/ | %54
 D/F,/G,/^D/^C/4B,/4^A,/4B,/4 C/E,/F,/C/B,/4A,/4^G,/4A,/4 | B, z4 B,, | %56
 E,/F,/^G,/E,/A,/E,/ B,/E,/^C/E,/D/E,/ | ^C z4 ^C, | D,>E,D,/^C,/ B,,/C,/B,,/A,,/G,,/F,,/ | %59
 E,,D,^C, D,2 B,, | G,, A,,2 D,^C,B,, | A,,6- | A,,6- | A,,3- A,,2 z | z z/ E,/D,/^C,/ B,,2 z | %65
 z z/ D,/^C,/B,,/ A,,2 z | z z/ C,/B,,/A,,/ G,, z2 | z2 z z/ A,,/B,,/^C,/D,/E,/ | %68
 F,/G,/A,A,, D,C,/D,/E,/D,/ | C,B,,/C,/D,/C,/ B,,C,D, | G, A,,2 B,,C,D, | %71
 E, F,,2 G,,F,,/G,,/A,,/B,,/ | C,, C/B,/A,/G,/ F,/E,/D,/C,/B,,/A,,/ | %73
 G,,/A,,/B,,/G,,/C,/G,,/ D,/G,,/E,/G,,/=F,/G,,/ | %74
 E,/ E,,/4F,,/4^G,,/E,,/A,,/E,,/ B,,/E,,/C,/E,,/D,/E,,/ | %75
 ^C,/A,/G,/F,/E,/D,/ C,/B,,/A,,/G,,/F,,/E,,/ | D,,6- | D,,C,/D,/E,/D,/ C,B,,/C,/D,/C,/ | %78
 B,,A,,/B,,/C,/B,,/ A,,G,,/A,,/B,,/A,,/ | G,,/G,/4E,/4F,/G,/D,/G,/ ^C,/A,/B,,/A,/A,,/A,/ | %80
 D,/C,/_B,,/D,/A,,/D,/ G,,/E,/F,,/E,/E,,/E,/ | F,,D,,G,, E,,C,,D,, | %82
 G,,3- G,,/G,,/4A,,/4B,,/G,,/C,/G,,/- | G,, G,,2- G,,3- | G,,6- | !fermata!G,,6 |] %86
V:3
 x6 | x6 | x6 | x6 | DE/D/^C/D/ EF/E/D/E/ | FED A, G2 | FED ^C B2 | AB/A/G/F/ EG/F/E/D/ | %8
 ^CGF EDC | D/E/F/D/G/D/ A/D/B/D/c/D/ | B3 c3- | cFG- GF/G/A/F/ | G/F/G/A/B/G/ A/G/A/B/c/A/ | %13
 Bc/B/A/G/ c3 | c/B/A/c/G/c/ F/c/E/c/D/c/ | B=FE DCB, | z z G F3- | F2 F E3 | E2 E D3 | %19
 DC/D/E/D/ CB,/C/D/C/ | B,CD G[I:staff +1] A,2 | B,[I:staff -1]CD E[I:staff +1] F,2 | %22
 G,[I:staff -1]G,/A,/B,/^C/ DB,/C/D/E/ | FE^D E=D^C | D[I:staff +1]^C/B,/A,/=C/ B,/C/B,/A,/G,/B,/ | %25
 A,/B,/A,/G,/F,/A,/ G,/A,/G,/F,/E,/G,/ | F,/G,/F,/E,/D,/E,/ F,/G,/A,/B,/C/D/ | %27
 F,[I:staff -1]AG- GGF | G z z4 | x6 | z z D C z z | z z ^C B, z z | z z B, A, z z | x6 | x6 | x6 | %36
 x6 | x6 | x6 |[I:staff +1] E/[I:staff -1]^D/E/F/G/E/ F/E/F/G/A/F/ | GA/G/F/E/ A3- | %41
 A/G/F/A/E/A/ ^D/A/^C/A/B,/A/ | GF/G/A/G/ FE/F/G/F/ | EFG c ^D2 | EFG A B,2 | %45
 C/B,/A,/B,/C/D/ E/^D/E/F/G/A/ | B3 BcF | E/F/ G2- G/F/E/D/^C/E/ | D/E/ F2 F/E/D/^C/B,/D/ | %49
 ^C/D/ E2- E/D/C/B,/^A,/C/ | B, z z4 | x6 | x6 | x6 | x6 | %55
[I:staff +1] B,/[I:staff -1]^C/D/B,/E/B,/ F/B,/^G/B,/A/B,/ | ^GEF GAB | %57
 E>[I:staff +1]D^C/B,/ A,/B,/A,/=G,/F,/E,/ | D,[I:staff -1] z z4 | %59
 z2 z[I:staff +1] D,E,/D,/^C,/D,/ | E,F,/E,/D,/E,/ F,E,D, | ^C, B,2 B,C/B,/A,/G,/ | %62
 E,G,/F,/E,/D,/ ^C,2 D,- | D,/G,/4F,/4E,/G,/D,/G,/ ^C,/G,/B,,/G,/A,,/G,/ | %64
 F,/G,/ A,2- A,/G,/F,/E,/D,/F,/ | G,/F,/ G,2- G,/F,/E,/D,/^C,/E,/ | %66
 D,/E,/ F,2- F,/B,,/^C,/D,/E,/F,/ | G,/A,/G,/F,/E,/D,/ ^C,[I:staff -1] z2 | x6 | %69
 z3 z/ G/=F/E/D/F/ | E/=F/E/D/C/E/ D/E/D/C/B,/D/ | C/D/C/B,/A,/C/ B,3 | A, z z4 | x6 | x6 | x6 | %76
 DC/D/E/D/ CB,/C/D/C/ | B,CD E[I:staff +1] F,2 | G,[I:staff -1]A/G/F/G/ AB/A/G/A/ | BAG- Gd^c | %80
 dGF D ^c2 | c2 c/B/4A/4 B A2 | BAG G2 F | GG=F E2 _E | DEF GGA | B2 A B3 |] %86
V:4
 x6 | x6 | x6 | x6 | x6 | x6 | x6 | x6 | x6 | x6 | x6 | x6 | x6 | x6 | x6 | x6 | x6 | x6 | x6 | %19
 x6 | x6 | x6 | x6 | x6 | x6 | x6 | x6 | x6 | x6 | x6 | x6 | x6 | x6 | x6 | x6 | x6 | x6 | x6 | %38
 x6 | x6 | x6 | x6 | x6 | x6 | x6 | x6 | x6 | x6 | x6 | x6 | x6 | x6 | x6 | x6 | x6 | x6 | x6 | %57
 x6 | x6 | x6 | x6 | x6 | x6 | x6 | x6 | x6 | x6 | x6 | x6 | x6 | x6 | x6 | x6 | x6 | x6 | x6 | %76
 x6 | x6 | x6 | x6 | x6 | x6 | x6 | D,G,,B,, C,/4B,,/4C,/4D,/4E,/C,/F,/C,/ | G,6- | G,6 |] %86
V:5
 x6 | x6 | x6 | x6 | x6 | x6 | x6 | x6 | x6 | x6 | x6 | x6 | x6 | x6 | x6 | x6 | x6 | x6 | x6 | %19
 x6 | x6 | x6 | x6 | x6 | x6 | x6 | x6 | x6 | x6 | x6 | x6 | x6 | x6 | x6 | x6 | x6 | x6 | x6 | %38
 x6 | x6 | x6 | x6 | x6 | x6 | x6 | x6 | x6 | x6 | x6 | x6 | x6 | x6 | x6 | x6 | x6 | x6 | x6 | %57
 x6 | x6 | x6 | x6 | x6 | x6 | x6 | x6 | x6 | x6 | x6 | x6 | x6 | x6 | x6 | x6 | x6 | x6 | x6 | %76
 x6 | x6 | x6 | x6 | x6 | x6 | x6 | x6 | x6 | z/ d/e/c/- c d3 |] %86

